src/extras-openmoji/emergency/E0AA.svg

<svg id="emoji" viewBox="0 0 72 72" xmlns="http://www.w3.org/2000/svg">
  <g id="grid">
    <path fill="#b3b3b3" d="M68,4V68H4V4H68m4-4H0V72H72V0Z"/>
    <path fill="none" stroke="#00a5ff" stroke-miterlimit="10" stroke-width="0.1" d="M12.923,10.9583H59.0769A1.9231,1.9231,0,0,1,61,12.8814V59.0352a1.9231,1.9231,0,0,1-1.9231,1.9231H12.9231A1.9231,1.9231,0,0,1,11,59.0352V12.8813A1.923,1.923,0,0,1,12.923,10.9583Z"/>
    <rect x="16" y="4" rx="2.2537" ry="2.2537" width="40" height="64" fill="none" stroke="#00a5ff" stroke-miterlimit="10" stroke-width="0.1"/>
    <rect x="16" y="4" rx="2.2537" ry="2.2537" width="40" height="64" transform="translate(72) rotate(90)" fill="none" stroke="#00a5ff" stroke-miterlimit="10" stroke-width="0.1"/>
    <circle cx="36" cy="36" r="29" fill="none" stroke="#00a5ff" stroke-miterlimit="10" stroke-width="0.1"/>
  </g>
  <g id="color">
    <path fill="#f4aa41" d="M45.1905,27.205H20.423v9.561A15.6418,15.6418,0,0,0,35.9937,52.4278a16.0014,16.0014,0,0,0,9.0146-2.8228A153.2983,153.2983,0,0,0,45.1905,27.205Z"/>
    <path fill="#e27022" d="M45.1905,27.205a165.7763,165.7763,0,0,1-.0911,22.3089,15.6337,15.6337,0,0,0,6.6472-12.839v-9.47Z"/>
    <polygon fill="#e27022" points="30.075 52.337 31.623 57.982 40.638 57.982 42.095 52.337 30.075 52.337"/>
    <rect x="32.4425" y="57.9822" width="7.3756" height="6.4847" fill="#e27022"/>
    <path fill="#3f3f3f" d="M28.2973,9.631a3.0064,3.0064,0,0,1,3.0049,2.7979V26.2034H28.2973Z"/>
    <path fill="#3f3f3f" d="M44.51,9.631a3.0064,3.0064,0,0,1,3.0049,2.7979V26.2034H44.51Z"/>
  </g>
  <g id="line">
    <path fill="none" stroke="#000" stroke-linecap="round" stroke-miterlimit="10" stroke-width="2" d="M31.3022,26.2034V12.6359A3.0316,3.0316,0,0,0,28.2973,9.631h0a3.0315,3.0315,0,0,0-3.0048,3.0049h0V26.2034"/>
    <path fill="none" stroke="#000" stroke-linecap="round" stroke-miterlimit="10" stroke-width="2" d="M47.5144,26.2034V12.6359A3.0315,3.0315,0,0,0,44.51,9.631h0a3.0316,3.0316,0,0,0-3.0049,3.0049h0V26.2034"/>
    <path fill="none" stroke="#000" stroke-linecap="round" stroke-linejoin="round" stroke-width="2" d="M19.5124,26.2944V36.766a16.5724,16.5724,0,0,0,33.1447,0V26.2944Z"/>
    <polyline fill="none" stroke="#000" stroke-linecap="round" stroke-linejoin="round" stroke-width="2" points="30.075 52.337 31.623 57.982 40.638 57.982 42.095 52.337"/>
    <polyline fill="none" stroke="#000" stroke-linecap="round" stroke-linejoin="round" stroke-width="2" points="32.442 64.467 32.442 57.982 39.818 57.982 39.818 64.467"/>
  </g>
</svg>

<svg viewBox="0 0 72 72" xmlns="http://www.w3.org/2000/svg"><path fill="#b3b3b3" d="M68 4v64H4V4h64m4-4H0v72h72V0z"/><path fill="none" stroke="#00a5ff" stroke-miterlimit="10" stroke-width=".1" d="M12.923 10.958h46.154A1.923 1.923 0 0161 12.881v46.154a1.923 1.923 0 01-1.923 1.923H12.923A1.923 1.923 0 0111 59.035V12.881a1.923 1.923 0 011.923-1.923z"/><rect x="16" y="4" rx="2.254" ry="2.254" width="40" height="64" fill="none" stroke="#00a5ff" stroke-miterlimit="10" stroke-width=".1"/><rect x="16" y="4" rx="2.254" ry="2.254" width="40" height="64" transform="rotate(90 36 36)" fill="none" stroke="#00a5ff" stroke-miterlimit="10" stroke-width=".1"/><circle cx="36" cy="36" r="29" fill="none" stroke="#00a5ff" stroke-miterlimit="10" stroke-width=".1"/><g stroke-linecap="round" stroke-miterlimit="10" stroke-width="6" stroke="#fff" fill="none" stroke-linejoin="round"><path d="M31.302 26.203V12.636a3.032 3.032 0 00-3.005-3.005h0a3.031 3.031 0 00-3.005 3.005h0v13.567m22.222 0V12.636A3.031 3.031 0 0044.51 9.63h0a3.032 3.032 0 00-3.005 3.005h0v13.567m-21.993.092v10.472a16.572 16.572 0 0033.145 0V26.294z"/><path d="M30.075 52.337l1.548 5.645h9.015l1.457-5.645m-9.653 12.13v-6.485h7.376v6.485"/></g><path fill="#f4aa41" d="M45.19 27.205H20.424v9.561a15.642 15.642 0 0015.57 15.662 16.001 16.001 0 009.015-2.823 153.298 153.298 0 00.182-22.4z"/><path fill="#e27022" d="M45.19 27.205a165.776 165.776 0 01-.09 22.309 15.634 15.634 0 006.647-12.84v-9.47zM30.075 52.337l1.548 5.645h9.015l1.457-5.645h-12.02zm2.368 5.645h7.376v6.485h-7.376z"/><path fill="#3f3f3f" d="M28.297 9.631a3.006 3.006 0 013.005 2.798v13.774h-3.005zm16.213 0a3.006 3.006 0 013.005 2.798v13.774H44.51z"/><g fill="none" stroke="#000" stroke-linecap="round" stroke-width="2"><path stroke-miterlimit="10" d="M31.302 26.203V12.636a3.032 3.032 0 00-3.005-3.005h0a3.031 3.031 0 00-3.005 3.005h0v13.567m22.222 0V12.636A3.031 3.031 0 0044.51 9.63h0a3.032 3.032 0 00-3.005 3.005h0v13.567"/><path stroke-linejoin="round" d="M19.512 26.294v10.472a16.572 16.572 0 0033.145 0V26.294z"/><path stroke-linejoin="round" d="M30.075 52.337l1.548 5.645h9.015l1.457-5.645m-9.653 12.13v-6.485h7.376v6.485"/></g></svg>
